X: 22511
T: Lady Elizabeth Cole's Reel
R: jig
M: 6/8
K: Aminor
e|"Am"a2 e "G7/B"f2 d|"C"e2 c "E7"dcB|"Am"c2 A "F"B2 A|"E7"^GBe E2 e|
"Am"aea "G7/B"fdf|"C"ece "E7/G#"dcB|"Am"cde "E7/B"dcB|"Am"A3 [A2C2]:|
|:c/d/|"Am"ecA "Am/C"ecA|"Dm"fef dec|"G"dBG "G/B"dBG|"C"ede "C/E"cdB|
"F"cAF "F/A"cAF|"Bdim"dcd "Bdim/D"BcA|"E"^GAB "E7/G#"EeB|"Am"cAA A2:|

